svg/color/comb.svg

<?xml version="1.0" encoding="UTF-8" ?>
<!DOCTYPE svg PUBLIC "-//W3C//DTD SVG 1.1//EN" "http://www.w3.org/Graphics/SVG/1.1/DTD/svg11.dtd">
<svg width="250pt" height="250pt" viewBox="0 0 250 250" version="1.1" xmlns="http://www.w3.org/2000/svg">
<g id="#ffffffff">
<path fill="#ffffff" opacity="1.00" d=" M 0.00 0.00 L 250.00 0.00 L 250.00 250.00 L 0.00 250.00 L 0.00 0.00 M 90.98 66.64 C 84.61 78.24 77.45 89.46 71.34 101.16 C 66.39 108.80 61.97 116.95 57.46 124.92 C 59.44 128.22 61.30 131.59 63.27 134.90 C 65.60 138.94 67.90 142.98 70.27 146.99 C 73.31 152.32 76.41 157.62 79.47 162.94 C 81.82 166.90 84.03 170.93 86.41 174.87 C 87.85 177.48 89.41 180.02 90.88 182.62 L 91.47 183.14 C 113.72 183.34 136.00 183.12 158.26 183.27 C 167.49 168.39 175.88 152.94 184.77 137.83 C 187.40 133.55 189.72 129.10 192.41 124.86 C 189.72 120.28 187.07 115.69 184.43 111.10 C 181.73 106.42 179.01 101.75 176.30 97.08 C 174.30 93.47 172.10 89.97 170.16 86.33 L 169.96 86.41 C 166.61 79.68 162.31 73.45 158.92 66.74 C 155.11 66.46 151.26 66.49 147.45 66.69 C 128.63 66.44 109.80 66.55 90.98 66.64 Z" />
<path fill="#ffffff" opacity="1.00" d=" M 104.99 76.71 C 116.66 76.60 128.34 76.72 140.01 76.65 C 141.54 76.73 143.21 76.40 144.62 77.18 C 137.83 84.92 131.48 93.04 124.94 101.00 C 123.66 99.55 122.43 98.07 121.24 96.55 C 116.65 90.97 112.06 85.40 107.50 79.80 C 106.66 78.77 105.82 77.74 104.99 76.71 Z" />
<path fill="#ffffff" opacity="1.00" d=" M 94.46 81.30 C 96.27 81.13 96.86 83.51 98.02 84.49 C 102.84 90.39 107.69 96.27 112.49 102.18 C 114.22 104.23 115.90 106.33 117.61 108.39 C 121.46 111.77 118.99 117.33 119.72 121.75 C 119.69 134.93 119.69 148.10 119.70 161.27 C 119.69 165.09 119.70 168.90 119.69 172.72 C 112.14 172.72 104.59 172.77 97.04 172.70 C 96.80 172.30 96.34 171.50 96.11 171.10 C 93.11 165.92 90.09 160.75 87.12 155.55 C 84.52 151.04 81.88 146.56 79.30 142.05 C 76.68 137.51 74.04 132.98 71.42 128.44 C 70.74 127.27 70.03 126.11 69.32 124.95 C 74.71 115.20 80.45 105.64 85.98 95.97 C 88.84 91.10 91.61 86.17 94.46 81.30 Z" />
<path fill="#ffffff" opacity="1.00" d=" M 130.24 110.67 C 138.61 100.85 146.38 90.49 154.99 80.89 C 157.26 84.51 159.26 88.29 161.45 91.97 C 163.75 95.92 166.02 99.89 168.32 103.84 C 171.07 108.54 173.72 113.29 176.52 117.96 C 177.13 119.02 177.62 120.16 178.09 121.30 C 175.06 121.91 172.04 122.57 169.03 123.29 C 157.03 125.71 145.07 128.34 133.09 130.90 C 132.37 131.06 130.92 131.39 130.20 131.55 C 130.18 124.59 130.10 117.63 130.24 110.67 Z" />
<path fill="#ffffff" opacity="1.00" d=" M 154.08 136.87 C 161.39 135.39 168.68 133.76 176.00 132.28 C 174.44 135.34 172.58 138.21 170.95 141.23 C 164.89 151.72 158.80 162.19 152.74 172.69 C 145.21 172.68 137.67 172.92 130.15 172.58 C 129.99 162.36 130.58 152.09 129.84 141.91 C 137.97 140.49 146.01 138.58 154.08 136.87 Z" />
</g>
<g id="#f98635ff">
<path fill="#f98635" opacity="1.00" d=" M 90.98 66.64 C 109.80 66.55 128.63 66.44 147.45 66.69 C 144.83 68.35 141.53 68.19 138.94 69.91 C 136.23 71.64 132.77 72.64 130.97 75.49 C 135.61 76.26 140.67 74.79 145.05 76.72 C 144.94 76.83 144.73 77.06 144.62 77.18 C 143.21 76.40 141.54 76.73 140.01 76.65 C 128.34 76.72 116.66 76.60 104.99 76.71 C 105.82 77.74 106.66 78.77 107.50 79.80 C 104.38 81.45 101.34 83.27 98.02 84.49 C 96.86 83.51 96.27 81.13 94.46 81.30 C 91.61 86.17 88.84 91.10 85.98 95.97 C 83.57 96.15 80.98 95.75 78.70 96.70 C 76.29 98.26 74.05 100.10 71.34 101.16 C 77.45 89.46 84.61 78.24 90.98 66.64 Z" />
</g>
<g id="#f16941ff">
<path fill="#f16941" opacity="1.00" d=" M 147.45 66.69 C 151.26 66.49 155.11 66.46 158.92 66.74 C 162.31 73.45 166.61 79.68 169.96 86.41 C 166.83 87.70 162.91 88.50 161.45 91.97 C 159.26 88.29 157.26 84.51 154.99 80.89 C 146.38 90.49 138.61 100.85 130.24 110.67 C 126.87 110.30 124.31 113.19 121.54 114.67 C 120.22 116.81 121.03 119.82 120.70 122.29 L 119.72 121.75 C 118.99 117.33 121.46 111.77 117.61 108.39 C 115.90 106.33 114.22 104.23 112.49 102.18 C 112.55 97.67 117.49 96.14 121.24 96.55 C 122.43 98.07 123.66 99.55 124.94 101.00 C 131.48 93.04 137.83 84.92 144.62 77.18 C 144.73 77.06 144.94 76.83 145.05 76.72 C 140.67 74.79 135.61 76.26 130.97 75.49 C 132.77 72.64 136.23 71.64 138.94 69.91 C 141.53 68.19 144.83 68.35 147.45 66.69 Z" />
</g>
<g id="#f5783bff">
<path fill="#f5783b" opacity="1.00" d=" M 107.50 79.80 C 112.06 85.40 116.65 90.97 121.24 96.55 C 117.49 96.14 112.55 97.67 112.49 102.18 C 107.69 96.27 102.84 90.39 98.02 84.49 C 101.34 83.27 104.38 81.45 107.50 79.80 Z" />
</g>
<g id="#ec5849ff">
<path fill="#ec5849" opacity="1.00" d=" M 169.96 86.41 L 170.16 86.33 C 172.10 89.97 174.30 93.47 176.30 97.08 C 173.22 98.78 170.14 100.71 168.32 103.84 C 166.02 99.89 163.75 95.92 161.45 91.97 C 162.91 88.50 166.83 87.70 169.96 86.41 Z" />
</g>
<g id="#f5773bff">
<path fill="#f5773b" opacity="1.00" d=" M 78.70 96.70 C 80.98 95.75 83.57 96.15 85.98 95.97 C 80.45 105.64 74.71 115.20 69.32 124.95 C 70.03 126.11 70.74 127.27 71.42 128.44 C 68.00 129.41 64.17 131.05 63.27 134.90 C 61.30 131.59 59.44 128.22 57.46 124.92 C 61.97 116.95 66.39 108.80 71.34 101.16 C 74.05 100.10 76.29 98.26 78.70 96.70 Z" />
</g>
<g id="#e84a4fff">
<path fill="#e84a4f" opacity="1.00" d=" M 176.30 97.08 C 179.01 101.75 181.73 106.42 184.43 111.10 C 181.53 113.05 177.98 114.54 176.52 117.96 C 173.72 113.29 171.07 108.54 168.32 103.84 C 170.14 100.71 173.22 98.78 176.30 97.08 Z" />
</g>
<g id="#ec5549ff">
<path fill="#ec5549" opacity="1.00" d=" M 121.54 114.67 C 124.31 113.19 126.87 110.30 130.24 110.67 C 130.10 117.63 130.18 124.59 130.20 131.55 C 130.92 131.39 132.37 131.06 133.09 130.90 C 132.54 131.22 131.44 131.87 130.88 132.20 C 130.05 131.72 129.22 131.23 128.38 130.77 C 126.44 132.66 124.27 135.21 121.27 134.85 C 120.50 130.70 120.78 126.48 120.70 122.29 C 121.03 119.82 120.22 116.81 121.54 114.67 Z" />
</g>
<g id="#e43956ff">
<path fill="#e43956" opacity="1.00" d=" M 184.43 111.10 C 187.07 115.69 189.72 120.28 192.41 124.86 C 189.72 129.10 187.40 133.55 184.77 137.83 C 184.15 137.25 183.53 136.68 182.91 136.10 C 178.97 138.13 175.32 140.65 171.34 142.60 C 171.24 142.26 171.05 141.57 170.95 141.23 C 172.58 138.21 174.44 135.34 176.00 132.28 C 168.68 133.76 161.39 135.39 154.08 136.87 C 153.45 136.30 152.82 135.74 152.19 135.17 C 156.81 129.81 164.51 128.64 169.03 123.29 C 172.04 122.57 175.06 121.91 178.09 121.30 C 177.62 120.16 177.13 119.02 176.52 117.96 C 177.98 114.54 181.53 113.05 184.43 111.10 Z" />
</g>
<g id="#e74351ff">
<path fill="#e74351" opacity="1.00" d=" M 119.72 121.75 L 120.70 122.29 C 120.78 126.48 120.50 130.70 121.27 134.85 C 124.27 135.21 126.44 132.66 128.38 130.77 C 129.22 131.23 130.05 131.72 130.88 132.20 C 131.44 131.87 132.54 131.22 133.09 130.90 C 145.07 128.34 157.03 125.71 169.03 123.29 C 164.51 128.64 156.81 129.81 152.19 135.17 C 152.82 135.74 153.45 136.30 154.08 136.87 C 146.01 138.58 137.97 140.49 129.84 141.91 C 128.29 146.56 129.77 151.68 128.33 156.37 C 126.44 159.29 122.92 160.50 119.70 161.27 C 119.69 148.10 119.69 134.93 119.72 121.75 Z" />
</g>
<g id="#f06543ff">
<path fill="#f06543" opacity="1.00" d=" M 63.27 134.90 C 64.17 131.05 68.00 129.41 71.42 128.44 C 74.04 132.98 76.68 137.51 79.30 142.05 C 75.47 141.71 71.91 143.41 70.27 146.99 C 67.90 142.98 65.60 138.94 63.27 134.90 Z" />
</g>
<g id="#de225fff">
<path fill="#de225f" opacity="1.00" d=" M 171.34 142.60 C 175.32 140.65 178.97 138.13 182.91 136.10 C 183.53 136.68 184.15 137.25 184.77 137.83 C 175.88 152.94 167.49 168.39 158.26 183.27 C 136.00 183.12 113.72 183.34 91.47 183.14 L 90.88 182.62 C 97.19 181.92 103.60 182.65 109.89 181.78 C 116.47 179.46 122.18 175.25 128.13 171.69 C 128.80 172.00 129.47 172.29 130.15 172.58 C 137.67 172.92 145.21 172.68 152.74 172.69 C 158.80 162.19 164.89 151.72 170.95 141.23 C 171.05 141.57 171.24 142.26 171.34 142.60 Z" />
</g>
<g id="#ec5649ff">
<path fill="#ec5649" opacity="1.00" d=" M 70.27 146.99 C 71.91 143.41 75.47 141.71 79.30 142.05 C 81.88 146.56 84.52 151.04 87.12 155.55 C 83.31 156.27 80.42 159.25 79.47 162.94 C 76.41 157.62 73.31 152.32 70.27 146.99 Z" />
</g>
<g id="#e23358ff">
<path fill="#e23358" opacity="1.00" d=" M 128.33 156.37 C 129.77 151.68 128.29 146.56 129.84 141.91 C 130.58 152.09 129.99 162.36 130.15 172.58 C 129.47 172.29 128.80 172.00 128.13 171.69 C 122.18 175.25 116.47 179.46 109.89 181.78 C 103.60 182.65 97.19 181.92 90.88 182.62 C 89.41 180.02 87.85 177.48 86.41 174.87 C 89.46 173.21 92.55 171.36 96.11 171.10 C 96.34 171.50 96.80 172.30 97.04 172.70 C 104.59 172.77 112.14 172.72 119.69 172.72 C 119.70 168.90 119.69 165.09 119.70 161.27 C 122.92 160.50 126.44 159.29 128.33 156.37 Z" />
</g>
<g id="#e74550ff">
<path fill="#e74550" opacity="1.00" d=" M 79.47 162.94 C 80.42 159.25 83.31 156.27 87.12 155.55 C 90.09 160.75 93.11 165.92 96.11 171.10 C 92.55 171.36 89.46 173.21 86.41 174.87 C 84.03 170.93 81.82 166.90 79.47 162.94 Z" />
</g>
</svg>

<?xml version="1.0" encoding="utf-8"?>
<!-- Generator: Adobe Illustrator 26.0.3, SVG Export Plug-In . SVG Version: 6.00 Build 0)  -->
<svg version="1.1" id="Layer_1" xmlns="http://www.w3.org/2000/svg" xmlns:xlink="http://www.w3.org/1999/xlink" x="0px" y="0px"
	 viewBox="0 0 250 250" style="enable-background:new 0 0 250 250;" xml:space="preserve">
<style type="text/css">
	.st0{fill:#FFFFFF;}
	.st1{fill:#F98635;}
	.st2{fill:#F16941;}
	.st3{fill:#F5783B;}
	.st4{fill:#EC5849;}
	.st5{fill:#F5773B;}
	.st6{fill:#E84A4F;}
	.st7{fill:#EC5549;}
	.st8{fill:#E43956;}
	.st9{fill:#E74351;}
	.st10{fill:#F06543;}
	.st11{fill:#DE225F;}
	.st12{fill:#EC5649;}
	.st13{fill:#E23358;}
	.st14{fill:#E74550;}
</style>
<g id="_x23_ffffffff">
	<path class="st0" d="M105,76.7c11.7-0.1,23.3,0,35-0.1c1.5,0.1,3.2-0.2,4.6,0.5c-6.8,7.7-13.1,15.9-19.7,23.8
		c-1.3-1.4-2.5-2.9-3.7-4.4c-4.6-5.6-9.2-11.2-13.7-16.8C106.7,78.8,105.8,77.7,105,76.7z"/>
	<path class="st0" d="M94.5,81.3c1.8-0.2,2.4,2.2,3.6,3.2c4.8,5.9,9.7,11.8,14.5,17.7c1.7,2.1,3.4,4.2,5.1,6.2
		c3.8,3.4,1.4,8.9,2.1,13.4c0,13.2,0,26.4,0,39.5c0,3.8,0,7.6,0,11.4c-7.6,0-15.1,0.1-22.7,0c-0.2-0.4-0.7-1.2-0.9-1.6
		c-3-5.2-6-10.4-9-15.6c-2.6-4.5-5.2-9-7.8-13.5c-2.6-4.5-5.3-9.1-7.9-13.6c-0.7-1.2-1.4-2.3-2.1-3.5c5.4-9.8,11.1-19.3,16.7-29
		C88.8,91.1,91.6,86.2,94.5,81.3z"/>
	<path class="st0" d="M130.2,110.7c8.4-9.8,16.1-20.2,24.8-29.8c2.3,3.6,4.3,7.4,6.5,11.1c2.3,3.9,4.6,7.9,6.9,11.9
		c2.8,4.7,5.4,9.5,8.2,14.1c0.6,1.1,1.1,2.2,1.6,3.3c-3,0.6-6.1,1.3-9.1,2c-12,2.4-24,5-35.9,7.6c-0.7,0.2-2.2,0.5-2.9,0.7
		C130.2,124.6,130.1,117.6,130.2,110.7z"/>
	<path class="st0" d="M154.1,136.9c7.3-1.5,14.6-3.1,21.9-4.6c-1.6,3.1-3.4,5.9-5.1,8.9c-6.1,10.5-12.1,21-18.2,31.5
		c-7.5,0-15.1,0.2-22.6-0.1c-0.2-10.2,0.4-20.5-0.3-30.7C138,140.5,146,138.6,154.1,136.9z"/>
</g>
<g id="_x23_f98635ff">
	<path class="st1" d="M91,66.6c18.8-0.1,37.7-0.2,56.5,0.1c-2.6,1.7-5.9,1.5-8.5,3.2c-2.7,1.7-6.2,2.7-8,5.6
		c4.6,0.8,9.7-0.7,14.1,1.2c-0.1,0.1-0.3,0.3-0.4,0.5c-1.4-0.8-3.1-0.4-4.6-0.5c-11.7,0.1-23.3-0.1-35,0.1c0.8,1,1.7,2.1,2.5,3.1
		c-3.1,1.6-6.2,3.5-9.5,4.7c-1.2-1-1.8-3.4-3.6-3.2c-2.8,4.9-5.6,9.8-8.5,14.7c-2.4,0.2-5-0.2-7.3,0.7c-2.4,1.6-4.6,3.4-7.4,4.5
		C77.4,89.5,84.6,78.2,91,66.6z"/>
</g>
<g id="_x23_f16941ff">
	<path class="st2" d="M147.4,66.7c3.8-0.2,7.7-0.2,11.5,0c3.4,6.7,7.7,12.9,11,19.7c-3.1,1.3-7.1,2.1-8.5,5.6
		c-2.2-3.7-4.2-7.5-6.5-11.1c-8.6,9.6-16.4,20-24.8,29.8c-3.4-0.4-5.9,2.5-8.7,4c-1.3,2.1-0.5,5.2-0.8,7.6l-1-0.5
		c-0.7-4.4,1.7-10-2.1-13.4c-1.7-2.1-3.4-4.2-5.1-6.2c0.1-4.5,5-6,8.8-5.6c1.2,1.5,2.4,3,3.7,4.4c6.5-8,12.9-16.1,19.7-23.8
		c0.1-0.1,0.3-0.3,0.4-0.5c-4.4-1.9-9.4-0.5-14.1-1.2c1.8-2.8,5.3-3.8,8-5.6C141.5,68.2,144.8,68.3,147.4,66.7z"/>
</g>
<g id="_x23_f5783bff">
	<path class="st3" d="M107.5,79.8c4.6,5.6,9.2,11.2,13.7,16.8c-3.8-0.4-8.7,1.1-8.8,5.6c-4.8-5.9-9.7-11.8-14.5-17.7
		C101.3,83.3,104.4,81.4,107.5,79.8z"/>
</g>
<g id="_x23_ec5849ff">
	<path class="st4" d="M170,86.4l0.2-0.1c1.9,3.6,4.1,7.1,6.1,10.8c-3.1,1.7-6.2,3.6-8,6.8c-2.3-3.9-4.6-7.9-6.9-11.9
		C162.9,88.5,166.8,87.7,170,86.4z"/>
</g>
<g id="_x23_f5773bff">
	<path class="st5" d="M78.7,96.7c2.3-0.9,4.9-0.5,7.3-0.7c-5.5,9.7-11.3,19.2-16.7,29c0.7,1.2,1.4,2.3,2.1,3.5
		c-3.4,1-7.2,2.6-8.1,6.5c-2-3.3-3.8-6.7-5.8-10c4.5-8,8.9-16.1,13.9-23.8C74.1,100.1,76.3,98.3,78.7,96.7z"/>
</g>
<g id="_x23_e84a4fff">
	<path class="st6" d="M176.3,97.1c2.7,4.7,5.4,9.3,8.1,14c-2.9,2-6.4,3.4-7.9,6.9c-2.8-4.7-5.4-9.4-8.2-14.1
		C170.1,100.7,173.2,98.8,176.3,97.1z"/>
</g>
<g id="_x23_ec5549ff">
	<path class="st7" d="M121.5,114.7c2.8-1.5,5.3-4.4,8.7-4c-0.1,7-0.1,13.9,0,20.9c0.7-0.2,2.2-0.5,2.9-0.7c-0.6,0.3-1.6,1-2.2,1.3
		c-0.8-0.5-1.7-1-2.5-1.4c-1.9,1.9-4.1,4.4-7.1,4.1c-0.8-4.2-0.5-8.4-0.6-12.6C121,119.8,120.2,116.8,121.5,114.7z"/>
</g>
<g id="_x23_e43956ff">
	<path class="st8" d="M184.4,111.1c2.6,4.6,5.3,9.2,8,13.8c-2.7,4.2-5,8.7-7.6,13c-0.6-0.6-1.2-1.2-1.9-1.7c-3.9,2-7.6,4.5-11.6,6.5
		c-0.1-0.3-0.3-1-0.4-1.4c1.6-3,3.5-5.9,5.1-8.9c-7.3,1.5-14.6,3.1-21.9,4.6c-0.6-0.6-1.3-1.1-1.9-1.7c4.6-5.4,12.3-6.5,16.8-11.9
		c3-0.7,6-1.4,9.1-2c-0.5-1.1-1-2.3-1.6-3.3C178,114.5,181.5,113.1,184.4,111.1z"/>
</g>
<g id="_x23_e74351ff">
	<path class="st9" d="M119.7,121.8l1,0.5c0.1,4.2-0.2,8.4,0.6,12.6c3,0.4,5.2-2.2,7.1-4.1c0.8,0.5,1.7,0.9,2.5,1.4
		c0.6-0.3,1.7-1,2.2-1.3c12-2.6,23.9-5.2,35.9-7.6c-4.5,5.3-12.2,6.5-16.8,11.9c0.6,0.6,1.3,1.1,1.9,1.7c-8.1,1.7-16.1,3.6-24.2,5
		c-1.6,4.6-0.1,9.8-1.5,14.5c-1.9,2.9-5.4,4.1-8.6,4.9C119.7,148.1,119.7,134.9,119.7,121.8z"/>
</g>
<g id="_x23_f06543ff">
	<path class="st10" d="M63.3,134.9c0.9-3.8,4.7-5.5,8.1-6.5c2.6,4.5,5.3,9.1,7.9,13.6c-3.8-0.3-7.4,1.4-9,4.9
		C67.9,143,65.6,138.9,63.3,134.9z"/>
</g>
<g id="_x23_de225fff">
	<path class="st11" d="M171.3,142.6c4-2,7.6-4.5,11.6-6.5c0.6,0.6,1.2,1.1,1.9,1.7c-8.9,15.1-17.3,30.6-26.5,45.4
		c-22.3-0.2-44.5,0.1-66.8-0.1l-0.6-0.5c6.3-0.7,12.7,0,19-0.8c6.6-2.3,12.3-6.5,18.2-10.1c0.7,0.3,1.3,0.6,2,0.9
		c7.5,0.3,15.1,0.1,22.6,0.1c6.1-10.5,12.1-21,18.2-31.5C171.1,141.6,171.2,142.3,171.3,142.6z"/>
</g>
<g id="_x23_ec5649ff">
	<path class="st12" d="M70.3,147c1.6-3.6,5.2-5.3,9-4.9c2.6,4.5,5.2,9,7.8,13.5c-3.8,0.7-6.7,3.7-7.7,7.4
		C76.4,157.6,73.3,152.3,70.3,147z"/>
</g>
<g id="_x23_e23358ff">
	<path class="st13" d="M128.3,156.4c1.4-4.7,0-9.8,1.5-14.5c0.7,10.2,0.2,20.4,0.3,30.7c-0.7-0.3-1.3-0.6-2-0.9
		c-6,3.6-11.7,7.8-18.2,10.1c-6.3,0.9-12.7,0.1-19,0.8c-1.5-2.6-3-5.1-4.5-7.8c3-1.7,6.1-3.5,9.7-3.8c0.2,0.4,0.7,1.2,0.9,1.6
		c7.5,0.1,15.1,0,22.7,0c0-3.8,0-7.6,0-11.4C122.9,160.5,126.4,159.3,128.3,156.4z"/>
</g>
<g id="_x23_e74550ff">
	<path class="st14" d="M79.5,162.9c0.9-3.7,3.8-6.7,7.7-7.4c3,5.2,6,10.4,9,15.6c-3.6,0.3-6.7,2.1-9.7,3.8
		C84,170.9,81.8,166.9,79.5,162.9z"/>
</g>
</svg>
